images/like.svg

<svg width="22" height="19" viewBox="0 0 22 19" fill="none" xmlns="http://www.w3.org/2000/svg">
<path fill-rule="evenodd" clip-rule="evenodd" d="M19.2444 2.74849C17.5625 1.08549 14.8243 1.08384 13.1403 2.74355L10.9911 4.91203L8.82016 2.76549C7.13407 1.08182 4.40014 1.08935 2.74406 2.74323L2.73878 2.7485C1.93084 3.54736 1.5 4.60323 1.5 5.74496C1.5 6.87098 1.94247 7.93498 2.74468 8.74728L10.9804 16.8905L19.2444 8.71923C20.9215 7.06094 20.9138 4.38283 19.2497 2.75372L19.2444 2.74849ZM10.9804 19L1.6841 9.80806C0.606277 8.72013 0 7.27695 0 5.74496C0 4.21297 0.583822 2.76979 1.6841 1.68186C3.92957 -0.560619 7.61215 -0.560619 9.88007 1.70406L10.9804 2.792L12.0806 1.68186C14.3486 -0.560619 18.0311 -0.560619 20.2991 1.68186C22.567 3.90213 22.567 7.54338 20.2991 9.78586L10.9804 19Z" fill="black"/>
</svg>

<svg width="22" height="19" fill="none" xmlns="http://www.w3.org/2000/svg"><path fill-rule="evenodd" clip-rule="evenodd" d="M19.244 2.748a4.36 4.36 0 0 0-6.104-.004l-2.149 2.168-2.17-2.147C7.133 1.082 4.4 1.09 2.743 2.743l-.005.006A4.158 4.158 0 0 0 1.5 5.745a4.25 4.25 0 0 0 1.245 3.002l8.235 8.143 8.264-8.17c1.678-1.66 1.67-4.337.006-5.966l-.006-.006ZM10.98 19 1.684 9.808A5.75 5.75 0 0 1 0 5.745C0 4.213.584 2.77 1.684 1.682 3.93-.561 7.612-.561 9.88 1.704l1.1 1.088 1.1-1.11c2.269-2.243 5.951-2.243 8.22 0 2.267 2.22 2.267 5.861 0 8.104L10.98 19Z" fill="#000"/></svg>
